;FLAVOR:RepRap
;TIME:19110
;Filament used: 14.7115m
;Layer height: 0.2
;Generated with Cura_SteamEngine 2.6.2
M190 S60
M104 S210
M109 S210
G21 ;metric values
G90 ;absolute positioning
M82 ;set extruder to absolute mode
M107 ;start with the fan off
G28 X0 Y0 ;move X/Y to min endstops
G28 Z0 ;move Z to min endstops
G0 X1 Y0 Z0.15 F9000 ; Move in 1mm from edge and up [z] 0.15mm
G92 E0 ;zero the extruded length
G1 F200 E3 ;extrude 3mm of feed stock
G92 E0 ;zero the extruded length again
G1 F9000
M117 Printing...
G5
;LAYER_COUNT:150
;LAYER:0
M107
M205 X30
G0 F3000 X47.08 Y51.125 Z0.3
M205 X8
;TYPE:SKIRT
G1 F1800 X47.539 Y50.718 E0.02849
G1 X48.048 Y50.374 E0.05703
G1 X48.612 Y50.093 E0.0863
G1 X49.426 Y49.753 E0.12727
G1 X50.006 Y49.554 E0.15575
G1 X50.607 Y49.432 E0.18424
G1 X51.066 Y49.392 E0.20564
G1 X52.49 Y49.339 E0.27182
G1 X52.665 Y49.336 E0.27995
G1 X103.163 Y49.332 E2.62547
G1 X107.667 Y49.255 E2.8347
G1 X110.157 Y49.118 E2.95053
G1 X110.416 Y49.111 E2.96257
G1 X161.916 Y49.117 E5.35463
G1 X162.528 Y49.157 E5.38312
G1 X163.104 Y49.27 E5.41038
G1 X164.104 Y49.531 E5.45838
G1 X164.687 Y49.724 E5.48691
G1 X165.239 Y49.991 E5.51539
G1 X165.698 Y50.288 E5.54078
G1 X166.195 Y50.652 E5.5694
G1 X166.665 Y51.046 E5.59788
G1 X167.08 Y51.498 E5.62638
G1 X167.316 Y51.816 E5.64478
G1 X167.846 Y52.601 E5.68877
G1 X168.155 Y53.131 E5.71727
G1 X168.393 Y53.697 E5.74579
G1 X168.567 Y54.347 E5.77704
G1 X168.735 Y55.22 E5.81833
G1 X168.82 Y56.11 E5.85986
G1 X168.814 Y147.61 E10.10983
G1 X168.774 Y148.223 E10.13836
G1 X168.659 Y148.81 E10.16615
G1 X168.394 Y149.816 E10.21447
G1 X168.199 Y150.398 E10.24298
G1 X167.93 Y150.949 E10.27146
G1 X167.463 Y151.624 E10.30958
G1 X166.877 Y152.33 E10.3522
G1 X166.455 Y152.776 E10.38072
G1 X165.979 Y153.163 E10.40921
G1 X165.649 Y153.377 E10.42748
G1 X165.153 Y153.67 E10.45424
G1 X164.605 Y153.947 E10.48276
G1 X164.026 Y154.151 E10.51127
G1 X163.713 Y154.227 E10.52623
G1 X162.801 Y154.416 E10.56949
G1 X162.193 Y154.501 E10.59801
G1 X161.846 Y154.514 E10.61414
G1 X110.426 Y154.528 E13.00248
G1 X102.325 Y154.752 E13.3789
G1 X102.19 Y154.754 E13.38517
G1 X51.222 Y154.697 E15.75252
G1 X50.61 Y154.656 E15.78101
G1 X50.008 Y154.536 E15.80952
G1 X49.614 Y154.412 E15.82871
G1 X49.038 Y154.202 E15.85719
G1 X48.476 Y153.955 E15.8857
G1 X47.748 Y153.486 E15.92592
G1 X47.095 Y152.975 E15.96444
G1 X46.638 Y152.567 E15.99289
G1 X46.237 Y152.102 E16.02141
G1 X46.007 Y151.767 E16.04028
G1 X45.614 Y151.14 E16.07466
G1 X45.323 Y150.6 E16.10315
G1 X45.104 Y150.027 E16.13164
G1 X45.006 Y149.656 E16.14946
G1 X44.855 Y148.973 E16.18195
G1 X44.762 Y148.366 E16.21048
G1 X44.744 Y147.957 E16.22949
G1 X44.721 Y56.997 E20.45438
G1 X44.738 Y56.593 E20.47316
G1 X44.855 Y55.229 E20.53675
G1 X44.947 Y54.623 E20.56522
G1 X45.118 Y54.033 E20.59375
G1 X45.276 Y53.648 E20.61308
G1 X45.543 Y53.073 E20.64253
G1 X45.837 Y52.535 E20.671
G1 X46.199 Y52.039 E20.69953
G1 X46.468 Y51.743 E20.7181
G1 X47.08 Y51.125 E20.7585
M205 X30
G0 F3000 X47.35 Y51.392
M205 X8
G1 F1800 X47.792 Y51.003 E20.78585
G1 X48.282 Y50.678 E20.81316
G1 X48.758 Y50.444 E20.8378
G1 X49.572 Y50.104 E20.87877
G1 X50.129 Y49.914 E20.90611
G1 X50.706 Y49.802 E20.93341
G1 X51.08 Y49.772 E20.95083
G1 X52.504 Y49.719 E21.01702
G1 X52.665 Y49.716 E21.0245
G1 X103.17 Y49.712 E23.37035
G1 X107.694 Y49.634 E23.58051
G1 X110.178 Y49.498 E23.69606
G1 X110.416 Y49.491 E23.70712
G1 X161.916 Y49.497 E26.09918
G1 X162.502 Y49.537 E26.12646
G1 X163.008 Y49.637 E26.15042
G1 X164.008 Y49.898 E26.19842
G1 X164.566 Y50.085 E26.22575
G1 X165.094 Y50.346 E26.25311
G1 X165.473 Y50.595 E26.27417
G1 X165.97 Y50.959 E26.30279
G1 X166.42 Y51.338 E26.33011
G1 X166.815 Y51.774 E26.35744
G1 X167.001 Y52.029 E26.3721
G1 X167.531 Y52.814 E26.41609
G1 X167.826 Y53.323 E26.44342
G1 X168.05 Y53.867 E26.47075
G1 X168.194 Y54.419 E26.49724
G1 X168.362 Y55.292 E26.53854
G1 X168.44 Y56.11 E26.5767
G1 X168.434 Y147.61 E30.82667
G1 X168.394 Y148.197 E30.854
G1 X168.291 Y148.713 E30.87844
G1 X168.026 Y149.719 E30.92676
G1 X167.838 Y150.276 E30.95407
G1 X167.576 Y150.803 E30.9814
G1 X167.171 Y151.381 E31.01419
G1 X166.585 Y152.087 E31.0568
G1 X166.179 Y152.514 E31.08417
G1 X165.72 Y152.881 E31.11147
G1 X165.455 Y153.05 E31.12606
G1 X164.959 Y153.343 E31.15282
G1 X164.434 Y153.607 E31.18012
G1 X163.636 Y153.855 E31.21893
G1 X162.724 Y154.044 E31.26219
G1 X162.141 Y154.124 E31.28952
G1 X161.846 Y154.134 E31.30323
G1 X110.416 Y154.148 E33.69204
G1 X102.315 Y154.372 E34.06846
G1 X102.19 Y154.374 E34.07427
G1 X51.222 Y154.317 E36.44162
G1 X50.635 Y154.276 E36.46895
G1 X50.059 Y154.157 E36.49627
G1 X49.744 Y154.055 E36.51165
G1 X49.168 Y153.845 E36.54012
G1 X48.63 Y153.607 E36.56745
G1 X47.983 Y153.187 E36.60328
G1 X47.33 Y152.676 E36.64179
G1 X46.892 Y152.283 E36.66912
G1 X46.512 Y151.834 E36.69645
G1 X46.329 Y151.566 E36.71152
G1 X45.936 Y150.939 E36.74589
G1 X45.658 Y150.42 E36.77324
G1 X45.453 Y149.869 E36.80054
G1 X45.377 Y149.574 E36.81469
G1 X45.226 Y148.891 E36.84718
G1 X45.138 Y148.309 E36.87452
G1 X45.124 Y147.957 E36.89088
G1 X45.101 Y56.997 E41.11577
G1 X45.117 Y56.626 E41.13302
G1 X45.234 Y55.262 E41.19661
G1 X45.324 Y54.681 E41.22392
G1 X45.492 Y54.117 E41.25125
G1 X45.621 Y53.808 E41.26681
G1 X45.888 Y53.233 E41.29625
G1 X46.171 Y52.718 E41.32355
G1 X46.522 Y52.246 E41.35087
G1 X46.738 Y52.01 E41.36573
G1 X47.35 Y51.392 E41.40612
M205 X30
G0 F3000 X47.62 Y51.66
M205 X8
G1 F1800 X48.043 Y51.29 E41.43223
G1 X48.514 Y50.983 E41.45834
G1 X48.905 Y50.794 E41.47851
G1 X49.719 Y50.454 E41.51949
G1 X50.251 Y50.275 E41.54556
G1 X50.804 Y50.173 E41.57168
G1 X51.094 Y50.152 E41.58518
G1 X52.518 Y50.099 E41.65137
G1 X52.665 Y50.096 E41.6582
G1 X103.176 Y50.092 E44.00432
G1 X107.695 Y50.014 E44.21425
G1 X110.199 Y49.877 E44.33073
G1 X110.415 Y49.871 E44.34077
G1 X161.915 Y49.877 E46.73283
G1 X162.476 Y49.917 E46.75895
G1 X162.913 Y50.005 E46.77966
G1 X163.913 Y50.266 E46.82766
G1 X164.445 Y50.446 E46.85375
G1 X164.946 Y50.7 E46.87984
G1 X165.249 Y50.901 E46.89673
G1 X165.746 Y51.265 E46.92534
G1 X166.174 Y51.629 E46.95144
G1 X166.686 Y52.242 E46.98853
G1 X167.216 Y53.027 E47.03253
G1 X167.496 Y53.513 E47.05858
G1 X167.705 Y54.035 E47.0847
G1 X167.821 Y54.491 E47.10655
G1 X167.989 Y55.364 E47.14784
G1 X168.06 Y56.11 E47.18265
G1 X168.054 Y147.61 E51.43262
G1 X168.014 Y148.171 E51.45875
G1 X167.924 Y148.616 E51.47983
G1 X167.659 Y149.622 E51.52815
G1 X167.477 Y150.154 E51.55427
G1 X167.222 Y150.654 E51.58034
G1 X166.878 Y151.139 E51.60796
G1 X166.292 Y151.845 E51.65057
G1 X165.904 Y152.25 E51.67663
G1 X165.262 Y152.723 E51.71366
G1 X164.766 Y153.016 E51.74042
G1 X164.263 Y153.267 E51.76653
G1 X163.559 Y153.483 E51.80074
G1 X162.647 Y153.672 E51.844
G1 X161.846 Y153.754 E51.8814
G1 X110.405 Y153.768 E54.27072
G1 X102.304 Y153.992 E54.64713
G1 X102.191 Y153.994 E54.65238
G1 X51.223 Y153.937 E57.01973
G1 X50.662 Y153.896 E57.04586
G1 X49.874 Y153.698 E57.0836
G1 X49.298 Y153.488 E57.11208
G1 X48.785 Y153.259 E57.13817
G1 X48.217 Y152.888 E57.16968
G1 X47.564 Y152.377 E57.2082
G1 X47.147 Y152 E57.23431
G1 X46.651 Y151.364 E57.27177
G1 X46.258 Y150.737 E57.30614
G1 X45.994 Y150.241 E57.33224
G1 X45.748 Y149.492 E57.36885
G1 X45.597 Y148.809 E57.40134
G1 X45.515 Y148.253 E57.42745
G1 X45.504 Y147.957 E57.44121
G1 X45.481 Y56.997 E61.6661
G1 X45.495 Y56.658 E61.68186
G1 X45.612 Y55.294 E61.74544
G1 X45.7 Y54.74 E61.7715
G1 X45.965 Y53.968 E61.80941
G1 X46.232 Y53.393 E61.83886
G1 X46.505 Y52.902 E61.86495
G1 X47.008 Y52.278 E61.90218
G1 X47.62 Y51.66 E61.94258
M205 X30
G0 F3000 X47.89 Y51.927
M205 X8
G1 F1800 X48.293 Y51.577 E61.96737
G1 X48.744 Y51.29 E61.9922
G1 X49.051 Y51.145 E62.00797
G1 X49.865 Y50.805 E62.04894
G1 X50.372 Y50.636 E62.07376
G1 X51.108 Y50.531 E62.1083
G1 X52.532 Y50.478 E62.17448
G1 X52.665 Y50.476 E62.18066
G1 X103.183 Y50.472 E64.52711
G1 X107.695 Y50.395 E64.73671
G1 X110.219 Y50.256 E64.85413
G1 X110.415 Y50.251 E64.86323
G1 X161.915 Y50.257 E67.25529
G1 X162.448 Y50.297 E67.28012
G1 X162.817 Y50.373 E67.29762
G1 X163.817 Y50.634 E67.34562
G1 X164.322 Y50.807 E67.37042
G1 X164.795 Y51.053 E67.39518
G1 X165.024 Y51.208 E67.40802
G1 X165.521 Y51.572 E67.43664
G1 X165.927 Y51.919 E67.46144
G1 X166.371 Y52.454 E67.49374
G1 X166.901 Y53.239 E67.53773
G1 X167.166 Y53.703 E67.56255
G1 X167.358 Y54.201 E67.58734
G1 X167.448 Y54.562 E67.60462
G1 X167.616 Y55.435 E67.64591
G1 X167.68 Y56.11 E67.67741
G1 X167.674 Y147.61 E71.92738
G1 X167.634 Y148.143 E71.9522
G1 X167.556 Y148.519 E71.97004
G1 X167.291 Y149.525 E72.01836
G1 X167.117 Y150.03 E72.04317
G1 X166.869 Y150.503 E72.06798
G1 X166.586 Y150.896 E72.09047
G1 X166 Y151.602 E72.13309
G1 X165.629 Y151.986 E72.15789
G1 X165.069 Y152.396 E72.19013
G1 X164.573 Y152.689 E72.21688
G1 X164.094 Y152.925 E72.24169
G1 X163.481 Y153.111 E72.27144
G1 X162.569 Y153.3 E72.3147
G1 X161.846 Y153.374 E72.34846
G1 X110.431 Y153.388 E74.73657
G1 X102.294 Y153.613 E75.11466
G1 X102.191 Y153.614 E75.11944
G1 X51.223 Y153.557 E77.4868
G1 X50.691 Y153.516 E77.51158
G1 X50.004 Y153.341 E77.54451
G1 X49.428 Y153.131 E77.57298
G1 X48.942 Y152.911 E77.59776
G1 X48.451 Y152.588 E77.62506
G1 X47.798 Y152.077 E77.66358
G1 X47.403 Y151.718 E77.68837
G1 X46.973 Y151.162 E77.72101
G1 X46.58 Y150.535 E77.75539
G1 X46.331 Y150.063 E77.78017
G1 X46.119 Y149.41 E77.81206
G1 X45.968 Y148.727 E77.84455
G1 X45.884 Y147.957 E77.88053
G1 X45.861 Y56.997 E82.10542
G1 X45.874 Y56.691 E82.11964
G1 X45.991 Y55.327 E82.18323
G1 X46.076 Y54.8 E82.20803
G1 X46.31 Y54.128 E82.24108
G1 X46.577 Y53.553 E82.27052
G1 X46.838 Y53.087 E82.29533
G1 X47.278 Y52.545 E82.32776
G1 X47.89 Y51.927 E82.36816
M205 X30
G0 F3000 X48.16 Y52.194
M205 X8
G1 F1800 X48.543 Y51.865 E82.39161
G1 X49.198 Y51.495 E82.42655
G1 X50.012 Y51.155 E82.46752
G1 X50.491 Y50.998 E82.49094
G1 X51.122 Y50.911 E82.52052
G1 X52.546 Y50.858 E82.58671
G1 X52.665 Y50.856 E82.59224
G1 X103.131 Y50.852 E84.93627
G1 X107.749 Y50.773 E85.1508
G1 X110.24 Y50.636 E85.26667
G1 X110.415 Y50.631 E85.27481
G1 X161.915 Y50.637 E87.66687
G1 X162.419 Y50.677 E87.69035
G1 X162.721 Y50.74 E87.70468
G1 X163.721 Y51.001 E87.75268
G1 X164.197 Y51.167 E87.7761
G1 X164.8 Y51.514 E87.80841
G1 X165.297 Y51.878 E87.83703
G1 X165.679 Y52.208 E87.86047
G1 X166.056 Y52.667 E87.88806
G1 X166.586 Y53.452 E87.93206
G1 X166.834 Y53.891 E87.95547
G1 X167.01 Y54.364 E87.97892
G1 X167.075 Y54.634 E87.99182
G1 X167.243 Y55.507 E88.03311
G1 X167.3 Y56.11 E88.06124
G1 X167.294 Y147.61 E92.31121
G1 X167.254 Y148.113 E92.33465
G1 X167.189 Y148.423 E92.34936
G1 X166.924 Y149.429 E92.39768
G1 X166.757 Y149.905 E92.42111
G1 X166.517 Y150.349 E92.44456
G1 X166.294 Y150.653 E92.46207
G1 X165.708 Y151.359 E92.50468
G1 X165.355 Y151.721 E92.52817
G1 X164.875 Y152.069 E92.55571
G1 X164.379 Y152.362 E92.58246
G1 X163.926 Y152.583 E92.60588
G1 X163.404 Y152.739 E92.63118
G1 X162.492 Y152.928 E92.67444
G1 X161.846 Y152.994 E92.7046
G1 X110.42 Y153.008 E95.09323
G1 X102.283 Y153.233 E95.47132
G1 X102.191 Y153.234 E95.47559
G1 X51.223 Y153.177 E97.84294
G1 X50.72 Y153.136 E97.86638
G1 X50.134 Y152.984 E97.8945
G1 X49.558 Y152.774 E97.92298
G1 X49.099 Y152.564 E97.94642
G1 X48.685 Y152.289 E97.96951
G1 X48.032 Y151.778 E98.00802
G1 X47.66 Y151.437 E98.03146
G1 X47.295 Y150.96 E98.05936
G1 X46.902 Y150.333 E98.09373
G1 X46.669 Y149.886 E98.11714
G1 X46.49 Y149.328 E98.14436
G1 X46.339 Y148.645 E98.17685
G1 X46.264 Y147.957 E98.209
G1 X46.241 Y56.997 E102.43389
G1 X46.253 Y56.723 E102.44663
G1 X46.37 Y55.359 E102.51021
G1 X46.452 Y54.861 E102.53366
G1 X46.655 Y54.289 E102.56185
G1 X46.922 Y53.714 E102.59129
G1 X47.17 Y53.274 E102.61475
G1 X47.548 Y52.812 E102.64248
G1 X48.16 Y52.194 E102.68288
M205 X30
G1 F3600 E97.68288
G0 F3000 X49.737 Y54.134
G0 X50.521 Y55.087
G0 X50.564 Y55.179
G0 X50.494 Y55.109
M205 X8
;TYPE:WALL-INNER
G1 F3600 E102.68288
G1 F1800 X50.745 Y54.904 E102.69793
G1 X51.041 Y54.745 E102.71354
G1 X51.356 Y54.649 E102.72883
G1 X51.698 Y54.616 E102.74479
G1 X103.162 Y54.616 E105.13518
G1 X103.504 Y54.649 E105.15114
G1 X103.819 Y54.745 E105.16643
G1 X104.115 Y54.904 E105.18204
G1 X104.366 Y55.109 E105.19709
G1 X104.571 Y55.36 E105.21215
G1 X104.73 Y55.656 E105.22775
G1 X104.826 Y55.971 E105.24305
G1 X104.859 Y56.313 E105.25901
G1 X104.859 Y147.777 E109.50731
G1 X104.826 Y148.119 E109.52327
G1 X104.73 Y148.434 E109.53856
G1 X104.571 Y148.73 E109.55417
G1 X104.366 Y148.981 E109.56922
G1 X104.115 Y149.186 E109.58427
G1 X103.819 Y149.345 E109.59988
G1 X103.504 Y149.441 E109.61517
G1 X103.162 Y149.474 E109.63113
G1 X51.698 Y149.474 E112.02152
G1 X51.356 Y149.441 E112.03748
G1 X51.041 Y149.345 E112.05278
G1 X50.745 Y149.186 E112.06838
G1 X50.494 Y148.981 E112.08344
G1 X50.289 Y148.73 E112.09849
G1 X50.13 Y148.434 E112.11409
G1 X50.034 Y148.119 E112.12939
G1 X50.001 Y147.777 E112.14535
G1 X50.001 Y56.313 E116.39365
G1 X50.034 Y55.971 E116.40961
G1 X50.13 Y55.656 E116.4249
G1 X50.289 Y55.36 E116.44051
G1 X50.494 Y55.109 E116.45556
M205 X30
G0 F3000 X50.564 Y55.179
G0 X103.158 Y149.375
G0 X103.178 Y149.854
M205 X8
;TYPE:WALL-OUTER
G1 F1800 X51.682 Y149.854 E118.84744
G1 X51.279 Y149.815 E118.86624
G1 X50.894 Y149.698 E118.88493
G1 X50.536 Y149.506 E118.9038
G1 X50.224 Y149.251 E118.92252
G1 X49.969 Y148.939 E118.94123
G1 X49.777 Y148.581 E118.9601
G1 X49.66 Y148.196 E118.97879
G1 X49.621 Y147.793 E118.9976
G1 X49.621 Y56.297 E123.24738
G1 X49.66 Y55.894 E123.26619
G1 X49.777 Y55.509 E123.28488
G1 X49.969 Y55.151 E123.30375
G1 X50.224 Y54.839 E123.32246
G1 X50.536 Y54.584 E123.34118
G1 X50.894 Y54.392 E123.36005
G1 X51.279 Y54.275 E123.37874
G1 X51.682 Y54.236 E123.39755
G1 X103.178 Y54.236 E125.78942
G1 X103.581 Y54.275 E125.80823
G1 X103.966 Y54.392 E125.82692
G1 X104.324 Y54.584 E125.84579
G1 X104.636 Y54.839 E125.8645
G1 X104.891 Y55.151 E125.88322
G1 X105.083 Y55.509 E125.90209
G1 X105.2 Y55.894 E125.92078
G1 X105.239 Y56.297 E125.93958
G1 X105.239 Y147.793 E130.18937
G1 X105.2 Y148.196 E130.20817
G1 X105.083 Y148.581 E130.22686
G1 X104.891 Y148.939 E130.24573
G1 X104.636 Y149.251 E130.26445
G1 X104.324 Y149.506 E130.28316
G1 X103.966 Y149.698 E130.30203
G1 X103.581 Y149.815 E130.32072
G1 X103.178 Y149.854 E130.33953
M205 X30
G0 F3000 X103.085 Y149.302
M205 X8
;TYPE:SKIN
G1 F1800 X50.172 Y96.388 E133.81526
G1 X50.105 Y96.321
M205 X30
G0 F3000 X50.172 Y95.851
M205 X8
G1 F1800 X103.564 Y149.243 E137.32243
G1 X103.631 Y149.31
M205 X30
G0 F3000 X103.942 Y149.084
M205 X8
G1 F1800 X50.172 Y95.313 E140.85445
G1 X50.105 Y95.246
M205 X30
G0 F3000 X50.172 Y94.776
M205 X8
G1 F1800 X104.25 Y148.854 E144.40668
G1 X104.317 Y148.921
M205 X30
G0 F3000 X104.477 Y148.544
M205 X8
G1 F1800 X50.172 Y94.238 E147.97385
G1 X50.105 Y94.171
M205 X30
G0 F3000 X50.172 Y93.701
M205 X8
G1 F1800 X104.634 Y148.163 E151.5513
G1 X104.701 Y148.23
M205 X30
G0 F3000 X104.687 Y147.679
M205 X8
G1 F1800 X50.172 Y93.164 E155.13223
G1 X50.105 Y93.097
M205 X30
G0 F3000 X50.172 Y92.626
M205 X8
G1 F1800 X104.687 Y147.142 E158.71319
G1 X104.754 Y147.209
M205 X30
G0 F3000 X104.687 Y146.605
M205 X8
G1 F1800 X50.172 Y92.089 E162.29416
G1 X50.105 Y92.022
M205 X30
G0 F3000 X50.172 Y91.551
M205 X8
G1 F1800 X104.687 Y146.067 E165.87512
G1 X104.754 Y146.134
M205 X30
G0 F3000 X104.687 Y145.53
M205 X8
G1 F1800 X50.172 Y91.014 E169.45609
G1 X50.105 Y90.947
M205 X30
G0 F3000 X50.172 Y90.477
M205 X8
G1 F1800 X104.687 Y144.992 E173.03702
G1 X104.754 Y145.059
M205 X30
G0 F3000 X104.687 Y144.455
M205 X8
G1 F1800 X50.172 Y89.939 E176.61798
G1 X50.105 Y89.872
M205 X30
G0 F3000 X50.172 Y89.402
M205 X8
G1 F1800 X104.687 Y143.918 E180.19895
G1 X104.754 Y143.985
M205 X30
G0 F3000 X104.687 Y143.38
M205 X8
G1 F1800 X50.172 Y88.864 E183.77991
G1 X50.105 Y88.797
M205 X30
G0 F3000 X50.172 Y88.327
M205 X8
G1 F1800 X104.687 Y142.843 E187.36087
G1 X104.754 Y142.91
M205 X30
G0 F3000 X104.687 Y142.305
M205 X8
G1 F1800 X50.172 Y87.79 E190.9418
G1 X50.105 Y87.723
M205 X30
G0 F3000 X50.172 Y87.252
M205 X8
G1 F1800 X104.687 Y141.768 E194.52277
G1 X104.754 Y141.835
M205 X30
G0 F3000 X104.687 Y141.231
M205 X8
